src/Pure/16/symbolic/actions/edit-find-replace-symbolic.svg

<?xml version="1.0" encoding="UTF-8" standalone="no"?>
<svg
   width="16"
   height="16"
   version="1.1"
   id="svg2"
   sodipodi:docname="edit-find-replace-symbolic.svg"
   inkscape:version="1.4.2 (ebf0e940d0, 2025-05-08)"
   xmlns:inkscape="http://www.inkscape.org/namespaces/inkscape"
   xmlns:sodipodi="http://sodipodi.sourceforge.net/DTD/sodipodi-0.dtd"
   xmlns="http://www.w3.org/2000/svg"
   xmlns:svg="http://www.w3.org/2000/svg">
  <defs
      id="defs2">
      <style
          id="current-color-scheme"
          type="text/css">
          .ColorScheme-Text { color:#363636; }
      </style>
  </defs>
  <sodipodi:namedview
     id="namedview2"
     pagecolor="#ffffff"
     bordercolor="#000000"
     borderopacity="0.25"
     inkscape:showpageshadow="2"
     inkscape:pageopacity="0.0"
     inkscape:pagecheckerboard="0"
     inkscape:deskcolor="#d1d1d1"
     inkscape:zoom="49.6875"
     inkscape:cx="8"
     inkscape:cy="8"
     inkscape:window-width="1920"
     inkscape:window-height="1010"
     inkscape:window-x="0"
     inkscape:window-y="0"
     inkscape:window-maximized="1"
     inkscape:current-layer="svg2" />
  <path
     id="path1"
     style="fill:currentColor"
     class="ColorScheme-Text"
     d="M 12.314453 0.85742188 L 3.828125 9.34375 L 3.1210938 10.050781 L 1 15 L 5.9492188 12.878906 L 15.142578 3.6855469 L 12.314453 0.85742188 z M 7.3085938 2.0117188 A 5 5 0 0 0 6.6425781 2.0136719 A 5 5 0 0 0 3.4648438 3.4648438 A 5 5 0 0 0 2.5410156 9.2148438 L 3.1210938 8.6367188 L 3.2871094 8.4707031 A 4 4 0 0 1 4.171875 4.171875 A 4 4 0 0 1 7 3 A 4 4 0 0 1 8.4707031 3.2871094 L 9.2265625 2.53125 A 5 5 0 0 0 7.3085938 2.0117188 z M 12.314453 2.2714844 L 13.728516 3.6855469 L 5.9492188 11.464844 L 4.5351562 10.050781 L 12.314453 2.2714844 z M 11.779297 8.4628906 L 8.4863281 11.755859 A 5 5 0 0 0 10.15625 10.863281 L 14.423828 15.130859 L 15.130859 14.423828 L 10.871094 10.164062 A 5 5 0 0 0 11.779297 8.4628906 z M 3.8828125 10.8125 L 5.1875 12.115234 L 2.9023438 13.095703 L 3.8828125 10.8125 z " />
</svg>

<svg width="16" height="16" version="1.1" xmlns="http://www.w3.org/2000/svg">
 <path d="m3.1213 10.05-2.1213 4.9497 4.9497-2.1213 9.1924-9.1924-2.8284-2.8284-8.4853 8.4853zm1.4142 0 7.7782-7.7782 1.4142 1.4142-7.7782 7.7782zm-0.65186 0.76235 1.3037 1.3037-2.2843 0.98056z" color="#000000" fill="#363636" stroke-width="2" style="-inkscape-stroke:none"/>
 <path d="m6.6426 2.0137a5 5 0 0 0-3.1777 1.4512 5 5 0 0 0-0.92383 5.75l0.58008-0.57812 0.16602-0.16602a4 4 0 0 1 0.88477-4.2988 4 4 0 0 1 2.8281-1.1719 4 4 0 0 1 1.4707 0.28711l0.75586-0.75586a5 5 0 0 0-2.584-0.51758zm5.1367 6.4492-3.293 3.293a5 5 0 0 0 1.6699-0.89258l4.2676 4.2676 0.70703-0.70703-4.2598-4.2598a5 5 0 0 0 0.9082-1.7012z" fill="#363636"/>
</svg>
